apps/vanilla/src/pages/assets/images/icons/search.svg

<svg width="40" height="40" fill="none" xmlns="http://www.w3.org/2000/svg"><path d="M36.94 39.061a1.501 1.501 0 0 0 2.121-2.122l-2.121 2.122ZM32 16.999h1.5H32ZM16.999 1.998v-1.5 1.5ZM6.392 6.392 5.331 5.331l1.061 1.061ZM1.999 16.999h-1.5 1.5Zm15 15.001v1.5V32Zm22.062 4.939L28.667 26.545l-2.121 2.122L36.94 39.061l2.121-2.122Zm-10.394-8.272A16.505 16.505 0 0 0 33.5 16.999h-3c0 3.581-1.423 7.014-3.954 9.546l2.121 2.122ZM33.5 16.999c0-4.376-1.739-8.573-4.833-11.668l-2.121 2.122a13.503 13.503 0 0 1 3.954 9.546h3ZM28.667 5.331A16.505 16.505 0 0 0 16.999.498v3c3.581 0 7.015 1.423 9.547 3.955l2.121-2.122ZM16.999.498A16.505 16.505 0 0 0 5.331 5.331l2.122 2.122a13.501 13.501 0 0 1 9.546-3.955v-3ZM5.331 5.331A16.504 16.504 0 0 0 .499 16.999h3c0-3.581 1.422-7.014 3.954-9.546L5.331 5.331ZM.499 16.999c0 4.376 1.738 8.573 4.832 11.668l2.122-2.122a13.498 13.498 0 0 1-3.954-9.546h-3Zm4.832 11.668A16.505 16.505 0 0 0 16.999 33.5v-3c-3.58 0-7.014-1.423-9.546-3.955l-2.122 2.122ZM16.999 33.5c4.376 0 8.573-1.739 11.668-4.833l-2.121-2.122a13.502 13.502 0 0 1-9.547 3.955v3Z" fill="#000"/></svg>

<svg width="40" height="40" viewBox="0 0 40 40" fill="none" xmlns="http://www.w3.org/2000/svg" xmlns:xlink="http://www.w3.org/1999/xlink">
<path d="M36.94,39.061C37.525,39.646 38.475,39.646 39.061,39.061C39.647,38.475 39.647,37.525 39.061,36.939L36.94,39.061ZM32,16.999L33.5,16.999L32,16.999ZM16.999,1.998L16.999,0.498L16.999,1.998ZM6.392,6.392L5.331,5.331L5.331,5.331L6.392,6.392ZM1.999,16.999L0.499,16.999L1.999,16.999ZM16.999,32L16.999,33.5L16.999,32ZM39.061,36.939L28.667,26.545L26.546,28.667L36.94,39.061L39.061,36.939ZM28.667,28.667C31.761,25.572 33.5,21.375 33.5,16.999L30.5,16.999C30.5,20.58 29.077,24.013 26.546,26.545L28.667,28.667ZM33.5,16.999C33.5,12.623 31.761,8.426 28.667,5.331L26.546,7.453C29.077,9.985 30.5,13.418 30.5,16.999L33.5,16.999ZM28.667,5.331C25.572,2.237 21.375,0.498 16.999,0.498L16.999,3.498C20.58,3.498 24.014,4.921 26.546,7.453L28.667,5.331ZM16.999,0.498C12.623,0.498 8.426,2.237 5.331,5.331L7.453,7.453C9.985,4.921 13.419,3.498 16.999,3.498L16.999,0.498ZM5.331,5.331C2.237,8.426 0.499,12.623 0.499,16.999L3.499,16.999C3.499,13.418 4.921,9.985 7.453,7.453L5.331,5.331ZM0.499,16.999C0.499,21.375 2.237,25.572 5.331,28.667L7.453,26.545C4.921,24.013 3.499,20.58 3.499,16.999L0.499,16.999ZM5.331,28.667C8.426,31.761 12.623,33.5 16.999,33.5L16.999,30.5C13.419,30.5 9.985,29.077 7.453,26.545L5.331,28.667ZM16.999,33.5C21.375,33.5 25.572,31.761 28.667,28.667L26.546,26.545C24.014,29.077 20.58,30.5 16.999,30.5L16.999,33.5Z" fill="#000000"/>
</svg>
